!!!!SEGMENT: pl-wtm--r-1660_stefani-jozef--kto-otrze-lze-niedoli.krn
!!!id: 18xx:2054
!!!COM: Stefani, Józef
!!!COM-rism: pe30024097
!!!CDT: 1800/04/16-1876/03/19
!!!CNT: Polish
!!!OTL: Kto otrze łzę niedoli
!!!PDT:
!!!SMS-siglum: PL-Wtm
!!!SMS-shelfmark: R 1660
!!!NIFC-rismID: 1001114908
!!!URL-scan: http://repozytorium.nifc.pl/skany/pl-wtm-nut--r1652--r1653--r1654--r1655--r1656--r1657--r1658--r1659--r1660--r1661
!!!ONB-nifc: UWAGA: No. 17, skan 0013
!!!SMS-variant:
!!!SMS-altvar:
**kern	**kern	**dynam	**kern	**text	**dynam
*part3	*part2	*part2	*part1	*part1	*part1
*staff3	*staff2	*	*staff1	*staff1	*
*I"Fortepian	*I"Fortepian	*	*I"Śpiew	*	*
*I'pf	*I'pf	*	*I'V	*	*
*clefF4	*clefG2	*	*clefG2	*	*
*k[b-e-a-]	*k[b-e-a-]	*	*k[b-e-a-]	*	*
*M4/4	*M4/4	*	*M4/4	*	*
*met(c)	*met(c)	*	*met(c)	*	*
!	!	!	!LO:TX:a:t=Nº 17.	!	!
!	!	!	!LO:TX:a:t=dolce	!	!
!	!	!	!LO:TX:a:t=Andante	!	!
4r	4g/ 4b-	.	4g/ 4b-	Kto	.
=1	=1	=1	=1	=1	=1
4EE-/ 4E-	4g/ 4b-	.	4g/ 4b-	o-	.
!LO:TX:t=P:problem:all\right	!	!	!	!	!
4E-\ 4G 4B-	4e-/ 4g	.	4e-/ 4g	-trze	.
!	!LO:TX:t=P:problem:all\right	!	!LO:TX:t=P:problem:all\right	!	!
4EE-/ 4E-	(8.cc\L 8.ee-	.	(8.cc\L 8.ee-	łzę	.
.	32dd\LL 32ff	.	32dd\LL 32ff	.	.
.	32cc\JJJ 32ee-	.	32cc\JJJ 32ee-	.	.
4E-\ 4A- 4c	8b-\L) 8dd	.	8b-\) 8dd	.	.
.	8a-'\J 8cc	.	8a-\ 8cc	nie-	.
=2	=2	=2	=2	=2	=2
4EE-/ 4E-	2g/ 2b-	.	2g/ 2b-	-do-	.
4E-\ 4G 4B-	.	.	.	.	.
4EE-/ 4E-	4e-/ 4g	.	2e-/ 2g	-li	.
4E-\	4e-/ 4g	.	.	.	.
=3	=3	=3	=3	=3	=3
4.F\	4.f/ 4.a-	.	4.f/ 4.a-	nę-	.
8C/	8en/ 8g	.	8en/ 8g	-dze	.
4F\	4f/ 4a-	.	4f/ 4a-	po-	.
4BB-/	4d/ 4b-	.	4d/ 4b-	-ra-	.
=4	=4	=4	=4	=4	=4
8E-\L	2e-/ 2g	.	2e-/ 2g	-tu-	.
(8B-\	.	.	.	.	.
8G\	.	.	.	.	.
8E-\J	.	.	.	.	.
4BB-/)	4d/ 4f	.	4d/ 4f	-je,	.
4r	4r	.	8d/ 8f	Ten	.
.	.	.	8d/ 8b-	nie-	.
=5	=5	=5	=5	=5	=5
*	*	*	*^	*	*
4CC/ 4C	4r	.	4b-/	4ryy	-zna-	.
4r	4c/ 4e- 4an	.	2an^/	2e-\	-ne	.
4CC/ 4C	4r	.	.	.	.	.
4r	4c/ 4e- 4a	.	(8f/L	4reyy	roz-	.
.	.	.	8e-/J) 8cc	.	.	.
=6	=6	=6	=6	=6	=6	=6
4DD/ 4D	4r	.	4e-/ 4cc	1r	-ka-	.
4r	4B-/ 4g 4b-	.	2d/ 2b-	.	-ze	.
4DD/ 4D	4r	.	.	.	.	.
4EE-/ 4E-	(8g/L	.	8e-/ 8g	.	w ser-	.
.	8e-/J) 8cc	.	8e-/ 8cc	.	-cu	.
*	*	*	*v	*v	*	*
!!linebreak:original
=7	=7	=7	=7	=7	=7
*^	*	*	*	*	*
4F/	4FF/	(8d/L 8b-	.	(8d/L 8b-	swem	.
.	.	16e-/L 16cc	.	16e-/L 16cc	.	.
.	.	16d/JJ 16b-	.	16d/JJ 16b-	.	.
4r	4ryy	8c/L 8an	.	8c/) 8an	.	.
.	.	8d/J) 8b-	.	8d/ 8b-	u-	.
4F/	2F\	(4.f/ 4.dd	.	(4.f/ 4.dd	-czu-	.
4An/	.	.	.	.	.	.
.	.	8e-/) 8cc	.	8e-/) 8cc	.	.
*v	*v	*	*	*	*	*
=8	=8	=8	=8	=8	=8
8B-\	8d/ 8b-	.	8d/ 8b-	-je,	.
8r	8r	.	8r	.	.
!	!	!LO:DY:a	!	!	!LO:DY:a
2BB-^\ 2B-	2b-/	f	2b-^/	Bo	f
(8.AAn\L 8.An	(8.an/L	.	(8.an/L	Bóg	.
16BB-\Jk) 16B-	16b-/Jk)	.	16b-/Jk)	.	.
=9	=9	=9	=9	=9	=9
!LO:TX:t=P:problem:mixedbeam	!	!	!	!	!LO:DY:a
(8BB-\L	4.a-X\ 4.ff	p	4.a-X\ 4.ff	do-	p
8B-\	.	.	.	.	.
8BB-\	.	.	.	.	.
8B-\J	8g\ 8ee-	.	8g\ 8ee-	-bry	.
!LO:TX:t=P:problem:mixedbeam	!	!	!	!	!
8BB-\L	4f/ 4dd	.	4f/ 4dd	hoj-	.
8B-\	.	.	.	.	.
8BB-\	4e-/ 4cc	.	4e-/ 4cc	-nie	.
8B-\J)	.	.	.	.	.
=10	=10	=10	=10	=10	=10
!LO:TX:t=P:problem:mixedbeam	!	!	!	!	!
(8BB-\L	4e-/ 4cc	.	4e-/ 4cc	pła-	.
8B-\	.	.	.	.	.
8BB-\	2d/ 2b-	.	2d/ 2b-	-ci	.
8B-\J	.	.	.	.	.
!LO:TX:t=P:problem:mixedbeam	!	!	!	!	!
8BB-\L	.	.	.	.	.
8B-\J)	.	.	.	.	.
!	!	!	!	!	!LO:DY:a
4AA-X\ 4A-X	8d/L 8b-	.	8d/ 8b-	Tym	f
.	8f/J 8b- 8dd	.	8f/ 8dd	co	.
=11	=11	=11	=11	=11	=11
4GG\ 4G	8e-/L 8b- 8ee-	.	4e-/ 4ee-	we-	.
.	8e-/J 8b- 8ee-	.	.	.	.
4AA-X\ 4A-X	8r	.	4a-\ 4cc	-sprą	.
.	8e-/ 8a- 8cc	.	.	.	.
4BB-\ 4B-	8r	.	4g/ 4b-	swo-	.
.	8e-/ 8g 8b-	.	.	.	.
4BBn\ 4Bn	8r	.	4f/ 4a-	-ich	.
.	8d/ 8f 8a-	.	.	.	.
!!linebreak:original
=12	=12	=12	=12	=12	=12
.	.	.	(8qf/ 8qa-	.	.
8C\ 8c	8r	.	4e-/) 4g	bra-	.
8r	8e-/ 8g	.	.	.	.
8C\ 8c	8r	.	4e-/ 4g	-ci	.
8r	8e-/ 8g	.	.	.	.
8AA-\ 8A-	8r	.	4.a-\ 4.cc	tym	.
8r	8e-/ 8a- 8cc	.	.	.	.
8AA-\ 8A-	8r	.	.	.	.
8r	8f/ 8a-	.	8f/ 8a-	co	.
=13	=13	=13	=13	=13	=13
8BB-\ 8B-	8r	.	4e-/ 4g	we-	.
8r	8e-/ 8g	.	.	.	.
8BB-\ 8B-	8r	.	4g/ 4b-	-sprą	.
8r	8g/ 8b-	.	.	.	.
4BB-\ 4B-	(8a-/L 8cc	.	(8a-/L 8cc	swo-	.
.	8g/J) 8b-	.	8g/J) 8b-	.	.
8BB-\L 8B-	(8f/L 8a-	.	(8f/L 8a-	-ich	.
8BB-\J 8A-	8d/J) 8f	.	8d/J) 8f	.	.
=14	=14	=14	=14	=14	=14
4BB-\ 4A-	4d/ 4f	.	4d/ 4f	bra-	.
4E-\ 4G	4e-/	.	4e-/	-ci,	.
4r	4r	.	4r	.	.
8BBB-/ 8BB-	8r	.	8d/ 8b-	Bo	p
8r	8B-/ 8d 8f 8a-	p	8d/ 8b-	Bóg	.
=15	=15	=15	=15	=15	=15
8EE-/ 8E-	8r	.	8e-/ 8b-	do-	.
8r	8B-/ 8e- 8g	.	8g/ 8b-	-bry	.
8BBB-/ 8BB-	8r	.	8d/ 8b-	hoj-	.
8r	8B-/ 8d 8f 8a-	.	8d/ 8b-	-nie	.
8EE-/ 8E-	8r	.	8e-/ 8b-	pła-	.
8r	8B-/ 8e- 8g	.	8g/ 8b-	-ci	.
8AA-\ 8A-	8r	.	8a-/ 8cc	Tym	.
8r	8e-/ 8a- 8cc	.	8a-/ 8cc	co	.
=16	=16	=16	=16	=16	=16
!	!	!	!	!	!LO:DY:a
4BB-\ 4B-	4e-/ 4g 4b-	f	4g/ 4b-	we-	f
4BB-\ 4B-	4g/ 4b- 4ee-	.	4g\ 4ee-	-sprą	.
4BB-\ 4B-	4f/ 4a- 4ee-	.	4f\ 4ee-	swo-	.
4BB-\ 4B-	4f/ 4a- 4dd	.	4f\ 4dd	-ich	.
=17	=17	=17	=17	=17	=17
(2BB-\ 2B-	(2a-\ 2dd 2ff	.	2a-\ 2ff	bra-	.
4E-\) 4B-	4g\) 4ee-	.	4g\ 4ee-	-ci.	.
4r	4r	.	4r	.	.
==	==	==	==	==	==
*-	*-	*-	*-	*-	*-
!!!system-decoration: s1,s2,s3
!!!ENC:Anastazja Marusiak
!!!END:2021-04-26
